Numix/16/status/indicator-keyboard-Pt-6.svg

<?xml version="1.0" encoding="UTF-8" standalone="no"?>
<svg
   xmlns:dc="http://purl.org/dc/elements/1.1/"
   xmlns:cc="http://creativecommons.org/ns#"
   xmlns:rdf="http://www.w3.org/1999/02/22-rdf-syntax-ns#"
   xmlns:svg="http://www.w3.org/2000/svg"
   xmlns="http://www.w3.org/2000/svg"
   xmlns:sodipodi="http://sodipodi.sourceforge.net/DTD/sodipodi-0.dtd"
   xmlns:inkscape="http://www.inkscape.org/namespaces/inkscape"
   viewBox="0 0 16 16"
   id="svg2"
   version="1.1"
   inkscape:version="0.91 r13725"
   sodipodi:docname="indicator-keyboard-Pt-6.svg">
  <metadata
     id="metadata14">
    <rdf:RDF>
      <cc:Work
         rdf:about="">
        <dc:format>image/svg+xml</dc:format>
        <dc:type
           rdf:resource="http://purl.org/dc/dcmitype/StillImage" />
      </cc:Work>
    </rdf:RDF>
  </metadata>
  <defs
     id="defs12" />
  <sodipodi:namedview
     pagecolor="#ffffff"
     bordercolor="#666666"
     borderopacity="1"
     objecttolerance="10"
     gridtolerance="10"
     guidetolerance="10"
     inkscape:pageopacity="0"
     inkscape:pageshadow="2"
     inkscape:window-width="640"
     inkscape:window-height="480"
     id="namedview10"
     showgrid="false"
     inkscape:zoom="14.75"
     inkscape:cx="8"
     inkscape:cy="8"
     inkscape:window-x="65"
     inkscape:window-y="24"
     inkscape:window-maximized="0"
     inkscape:current-layer="svg2" />
  <path
     style="fill:#ececec;fill-opacity:1"
     d="M 1.5996094 0 C 0.71320937 2.9605947e-16 0 0.71320937 0 1.5996094 L 0 14.400391 C 2.9605947e-16 15.286791 0.71320937 16 1.5996094 16 L 14.400391 16 C 15.286791 16 16 15.286791 16 14.400391 L 16 1.5996094 C 16 0.71320937 15.286791 0 14.400391 0 L 1.5996094 0 z M 4.1015625 4.8046875 C 4.9835625 4.8046875 5.6422188 4.9725937 6.0742188 5.3085938 C 6.5062187 5.6445937 6.7207031 6.1222344 6.7207031 6.7402344 C 6.7207031 7.0942344 6.6592031 7.3964375 6.5332031 7.6484375 C 6.4072031 7.8944375 6.2261875 8.0959531 5.9921875 8.2519531 C 5.7581875 8.4019531 5.4709063 8.5139375 5.1289062 8.5859375 C 4.7929063 8.6519375 4.4123281 8.6835938 3.9863281 8.6835938 L 3.1386719 8.6835938 L 3.1386719 11.095703 L 2.5273438 11.095703 L 2.5273438 4.9765625 C 2.7433437 4.9165625 2.9952031 4.8736094 3.2832031 4.8496094 C 3.5772031 4.8196094 3.8495625 4.8046875 4.1015625 4.8046875 z M 8.3671875 4.9667969 L 8.3671875 6.4433594 L 10.220703 6.4433594 L 10.220703 6.9375 L 8.3671875 6.9375 L 8.3671875 9.4121094 C 8.3671875 9.6761094 8.3876875 9.8925467 8.4296875 10.060547 C 8.4776875 10.222547 8.5429531 10.349453 8.6269531 10.439453 C 8.7109531 10.529453 8.8135937 10.589141 8.9335938 10.619141 C 9.0535937 10.649141 9.1860781 10.664063 9.3300781 10.664062 C 9.5760781 10.664062 9.7738281 10.636031 9.9238281 10.582031 C 10.073828 10.522031 10.191391 10.469875 10.275391 10.421875 L 10.417969 10.90625 C 10.333969 10.96025 10.188516 11.023703 9.9785156 11.095703 C 9.7685156 11.161703 9.5389688 11.195312 9.2929688 11.195312 C 9.0049687 11.195312 8.7624531 11.159891 8.5644531 11.087891 C 8.3724531 11.009891 8.2157031 10.894141 8.0957031 10.744141 C 7.9817031 10.588141 7.9015156 10.397922 7.8535156 10.169922 C 7.8055156 9.9419217 7.78125 9.671375 7.78125 9.359375 L 7.78125 5.0742188 L 8.3671875 4.9667969 z M 4.1289062 5.3359375 C 3.9009062 5.3359375 3.7069219 5.3452812 3.5449219 5.3632812 C 3.3889219 5.3752813 3.2526719 5.3864375 3.1386719 5.3984375 L 3.1386719 8.1523438 L 3.9140625 8.1523438 C 4.2440625 8.1523438 4.5406875 8.1356094 4.8046875 8.0996094 C 5.0746875 8.0576094 5.3022812 7.9848125 5.4882812 7.8828125 C 5.6802812 7.7748125 5.8276875 7.6274062 5.9296875 7.4414062 C 6.0316875 7.2554063 6.0820313 7.0184687 6.0820312 6.7304688 C 6.0820312 6.4544688 6.0261094 6.226875 5.9121094 6.046875 C 5.8041094 5.866875 5.6567031 5.7250469 5.4707031 5.6230469 C 5.2907031 5.5150469 5.0836094 5.4404375 4.8496094 5.3984375 C 4.6156094 5.3564375 4.3749063 5.3359375 4.1289062 5.3359375 z M 13.203125 8.8242188 L 13.226562 9.1464844 C 12.988663 9.1620844 12.769206 9.1993125 12.566406 9.2578125 C 12.367506 9.3124125 12.189203 9.4005844 12.033203 9.5214844 C 11.877203 9.6384843 11.745925 9.7893625 11.640625 9.9765625 C 11.535325 10.163763 11.464781 10.394969 11.425781 10.667969 C 11.531081 10.613369 11.656487 10.566344 11.804688 10.527344 C 11.952888 10.484444 12.111597 10.462891 12.279297 10.462891 C 12.497697 10.462891 12.681884 10.498159 12.833984 10.568359 C 12.986084 10.634659 13.109525 10.722838 13.203125 10.835938 C 13.296725 10.949038 13.365303 11.080316 13.408203 11.228516 C 13.451103 11.376716 13.472656 11.533466 13.472656 11.697266 C 13.472656 11.849366 13.449144 12.000244 13.402344 12.152344 C 13.355544 12.304444 13.281088 12.443559 13.179688 12.568359 C 13.082188 12.689259 12.956787 12.789187 12.804688 12.867188 C 12.656487 12.945188 12.480137 12.984375 12.273438 12.984375 C 11.848337 12.984375 11.525034 12.835463 11.302734 12.539062 C 11.084334 12.238762 10.974609 11.821409 10.974609 11.287109 C 10.974609 10.495409 11.164669 9.8958281 11.542969 9.4863281 C 11.925169 9.0768281 12.477725 8.8554188 13.203125 8.8242188 z M 12.244141 10.794922 C 12.064741 10.794922 11.906031 10.816475 11.769531 10.859375 C 11.636931 10.898375 11.513484 10.9454 11.396484 11 C 11.388684 11.0663 11.384766 11.119203 11.384766 11.158203 L 11.384766 11.292969 C 11.384766 11.476269 11.396522 11.650653 11.419922 11.814453 C 11.447222 11.978253 11.492294 12.121294 11.558594 12.246094 C 11.628794 12.370894 11.720884 12.470822 11.833984 12.544922 C 11.947084 12.615122 12.092078 12.650391 12.267578 12.650391 C 12.411878 12.650391 12.535319 12.624919 12.636719 12.574219 C 12.738119 12.519619 12.818459 12.449081 12.880859 12.363281 C 12.943259 12.277481 12.988325 12.177553 13.015625 12.064453 C 13.046825 11.951353 13.0625 11.833784 13.0625 11.708984 C 13.0625 11.396984 12.991962 11.165778 12.851562 11.017578 C 12.715062 10.869378 12.513241 10.794922 12.244141 10.794922 z "
     id="path4" />
</svg>

<svg xmlns="http://www.w3.org/2000/svg" viewBox="0 0 16 16">
 <path d="m 1.6 0 c -0.886 0 -1.6 0.713 -1.6 1.6 l 0 12.801 c 0 0.886 0.713 1.6 1.6 1.6 l 12.801 0 c 0.886 0 1.6 -0.713 1.6 -1.6 l 0 -12.801 c 0 -0.886 -0.713 -1.6 -1.6 -1.6 l -12.801 0 z m 2.502 4.805 c 0.882 0 1.541 0.168 1.973 0.504 c 0.432 0.336 0.646 0.814 0.646 1.432 c 0 0.354 -0.061 0.656 -0.188 0.908 c -0.126 0.246 -0.307 0.448 -0.541 0.604 c -0.234 0.15 -0.521 0.262 -0.863 0.334 c -0.336 0.066 -0.717 0.098 -1.143 0.098 l -0.848 0 l 0 2.412 l -0.611 0 l 0 -6.119 c 0.216 -0.06 0.468 -0.103 0.756 -0.127 c 0.294 -0.03 0.566 -0.045 0.818 -0.045 z m 4.266 0.162 l 0 1.477 l 1.854 0 l 0 0.494 l -1.854 0 l 0 2.475 c 0 0.264 0.021 0.48 0.063 0.648 c 0.048 0.162 0.113 0.289 0.197 0.379 c 0.084 0.09 0.187 0.15 0.307 0.18 c 0.12 0.03 0.252 0.045 0.396 0.045 c 0.246 0 0.444 -0.028 0.594 -0.082 c 0.15 -0.06 0.268 -0.112 0.352 -0.16 l 0.143 0.484 c -0.084 0.054 -0.229 0.117 -0.439 0.189 c -0.21 0.066 -0.44 0.1 -0.686 0.1 c -0.288 0 -0.531 -0.035 -0.729 -0.107 c -0.192 -0.078 -0.349 -0.194 -0.469 -0.344 c -0.114 -0.156 -0.194 -0.346 -0.242 -0.574 c -0.048 -0.228 -0.072 -0.499 -0.072 -0.811 l 0 -4.285 l 0.586 -0.107 z m -4.238 0.369 c -0.228 0 -0.422 0.009 -0.584 0.027 c -0.156 0.012 -0.292 0.023 -0.406 0.035 l 0 2.754 l 0.775 0 c 0.33 0 0.627 -0.017 0.891 -0.053 c 0.27 -0.042 0.498 -0.115 0.684 -0.217 c 0.192 -0.108 0.339 -0.255 0.441 -0.441 c 0.102 -0.186 0.152 -0.423 0.152 -0.711 c 0 -0.276 -0.056 -0.504 -0.17 -0.684 c -0.108 -0.18 -0.255 -0.322 -0.441 -0.424 c -0.18 -0.108 -0.387 -0.183 -0.621 -0.225 c -0.234 -0.042 -0.475 -0.063 -0.721 -0.063 z m 9.07 3.488 l 0.023 0.322 c -0.238 0.016 -0.457 0.053 -0.66 0.111 c -0.199 0.055 -0.377 0.143 -0.533 0.264 c -0.156 0.117 -0.287 0.268 -0.393 0.455 c -0.105 0.187 -0.176 0.418 -0.215 0.691 c 0.105 -0.055 0.231 -0.102 0.379 -0.141 c 0.148 -0.043 0.307 -0.064 0.475 -0.064 c 0.218 0 0.403 0.035 0.555 0.105 c 0.152 0.066 0.276 0.154 0.369 0.268 c 0.094 0.113 0.162 0.244 0.205 0.393 c 0.043 0.148 0.064 0.305 0.064 0.469 c 0 0.152 -0.024 0.303 -0.07 0.455 c -0.047 0.152 -0.121 0.291 -0.223 0.416 c -0.098 0.121 -0.223 0.221 -0.375 0.299 c -0.148 0.078 -0.325 0.117 -0.531 0.117 c -0.425 0 -0.748 -0.149 -0.971 -0.445 c -0.218 -0.3 -0.328 -0.718 -0.328 -1.252 c 0 -0.792 0.19 -1.391 0.568 -1.801 c 0.382 -0.409 0.935 -0.631 1.66 -0.662 z m -0.959 1.971 c -0.179 0 -0.338 0.022 -0.475 0.064 c -0.133 0.039 -0.256 0.086 -0.373 0.141 c -0.008 0.066 -0.012 0.119 -0.012 0.158 l 0 0.135 c 0 0.183 0.012 0.358 0.035 0.521 c 0.027 0.164 0.072 0.307 0.139 0.432 c 0.07 0.125 0.162 0.225 0.275 0.299 c 0.113 0.07 0.258 0.105 0.434 0.105 c 0.144 0 0.268 -0.025 0.369 -0.076 c 0.101 -0.055 0.182 -0.125 0.244 -0.211 c 0.062 -0.086 0.107 -0.186 0.135 -0.299 c 0.031 -0.113 0.047 -0.231 0.047 -0.355 c 0 -0.312 -0.071 -0.543 -0.211 -0.691 c -0.136 -0.148 -0.338 -0.223 -0.607 -0.223 z" style="fill:#ececec;fill-opacity:1"/>
</svg>
